public/avatar/body/186.svg

<svg xmlns:xlink="http://www.w3.org/1999/xlink" height="82" width="84.85" xmlns="http://www.w3.org/2000/svg"><g transform="translate(37.4 42.25)"><use height="38" transform="translate(-11.95 -17.45)" width="32.05" xlink:href="#a"/><use height="38.95" transform="translate(-12.45 -17.95)" width="33.05" xlink:href="#b"/><use height="21.8" transform="translate(-14.4 4.8)" width="37.65" xlink:href="#c"/><use height="21.05" transform="translate(-13.35 1.5)" width="13.7" xlink:href="#d"/><use height="21.05" transform="matrix(-1 0 0 1 21.3 1.5)" width="13.7" xlink:href="#d"/></g><defs><use height="38" width="32.05" xlink:href="#e" id="a"/><use height="38.95" width="33.05" xlink:href="#f" id="b"/><use height="21.05" width="13.7" xlink:href="#g" id="d"/><path d="M27.35 7.4q2.15 4.15 3.55 8.75 1.45 4.7 1.15 9.5-.35 4.95-4.2 8.1-3.8 3.2-8.75 4.05l-2.6.2q-3.6 0-7.05-1.15-4.65-1.6-7.1-5.5Q-.2 27.4.05 23q.2-4.4 2-9.3Q3.85 8.75 7 5.05 10.1 1.3 14.7.1l1.8-.1q1.9.05 3.7.8 4.75 2.05 7.15 6.6" fill="#fff" fill-rule="evenodd" transform="translate(-.05)" id="e"/><path d="M27.35 7.4Q24.95 2.85 20.2.8 17.55-.3 14.7.1 10.1 1.3 7 5.05q-3.15 3.7-4.95 8.65-1.8 4.9-2 9.3-.25 4.4 2.3 8.35 2.45 3.9 7.1 5.5 4.65 1.55 9.65.95 4.95-.85 8.75-4.05 3.85-3.15 4.2-8.1.3-4.8-1.15-9.5-1.4-4.6-3.55-8.75Z" fill="none" stroke="#000" stroke-linecap="round" stroke-linejoin="round" transform="translate(.45 .5)" id="f"/><g id="c"><path d="M23 20.05q.35.25.2.6-1.35 4-6.95 5.4l-6.95.55q-3.5-.25-4.35-1.05l-.15-.3-.1-2.3-.25-.1-.1.05q-.2.4 0 2.25.1.45-.35.55-9.85 2.5-16.5-1.85-1.7-1.05-1.9-2.05l.15-.4q2-2.45 2.65-7.55l.3-1.6q.15-.25.35-.25l.45.1q2.75 2.35 9.25 3 5.75.55 12.25-.3 6.95-1 7.85-2.3.25-.25.55-.2l.35.4.1.45q1.2 5.6 3.15 6.9" fill="#3e0202" fill-rule="evenodd" transform="translate(14.4 -4.8)"/><path d="m16.4 23.15-.95.95-.65.55-.25.05q-3.3 1.15-6.7.1l-2.15-.65.1.8-.4-2.7q2.75-.5 5.2.7l.35.3-4.1-.45-1.4-.4.15 1q2.8 1 5.8.75l1.2-.15 1.1-.2.15-.05h.1l1.35-.25 1.1-.35m-5.65-7.25v2.7l-.05.8Q6.4 22.55.95 20.85l-3.3-1.25.75 3.6-.05.05q-5.1 0-9.3-3L-12 19.4l1.5-6.1q5.2 2.85 11.2 3 3.4.25 6.65-.1l3.4-.3m-12.4 8.25L0 24.6h1.65l-3.15.25q-4.45.05-8.45-1.65-1.75-.7-2.95-2.05l.5-.8q3.75 3 8.75 3.65l2 .15" fill="#d80000" fill-rule="evenodd" transform="translate(14.4 -4.8)"/><path d="M16.4 23.15q2.35-.75 3.9-2.75l.75-1-.55-.6-.85 1q-2 1.95-4.8 2.75L13 23l-1.55.2-.5.05-.35-.3q-2.45-1.2-5.2-.7l-1.9.1q-2.1.9-4.2.9l-.9-.05-.75-3.6 3.3 1.25q5.45 1.7 9.75-1.45l.05-.8v-2.7q4.4-.05 8.05-2.2l.35 1.2q.8 3.25 3 5.65l-.45-.35q-2.5 3.65-6.9 4.45l.65-.55.95-.95M.35 24l1.45-.15.9-.3.6-.2-.05.8-1.6.45H0l-1.65-.45 2-.15" fill="#960000" fill-rule="evenodd" transform="translate(14.4 -4.8)"/><path d="m13 23 1.85-.45q2.8-.8 4.8-2.75-1.95 2.25-4.85 2.9L13 23M.35 24l-2 .15-2-.15q-5-.65-8.75-3.65l.4-.95 1.05.85q4.2 3 9.3 3l.05.85L.35 24m2.95-.65-.6.2.7-.3-.1.1m11.25 1.35-1.8 1.2q-3.15.4-6.25-.7l-.7-.25-.1-.8 2.15.65q3.4 1.05 6.7-.1m-16.15.95-1.85-.1q-6.05 0-9.9-3.75l.45-.65q1.2 1.35 2.95 2.05 4 1.7 8.45 1.65l-.1.8" fill="#ffa80d" fill-rule="evenodd" transform="translate(14.4 -4.8)"/><path d="m19.65 19.8.85-1 .55.6-.75 1q-1.55 2-3.9 2.75l-1.1.35-1.35.25h-.1l-.15.05-2.3.35 2.3-.35-1.1.2-1.2.15q-3 .25-5.8-.75l-.15-1 1.4.4 4.1.45.5-.05L13 23l1.8-.3q2.9-.65 4.85-2.9m-4.85 4.85q4.4-.8 6.9-4.45l.45.35q-2.05 5-7.7 5.15l-1.7.2 1.8-1.2.25-.05M-1.6 23.2l.9.05q2.1 0 4.2-.9l-.1.9-.7.3-.9.3L.35 24l-1.95.1-.05-.85.05-.05m3.25 1.4 1.6-.45.05.7-1.2.4-3.7.4.1-.8 3.15-.25m9.8-1.4v.9l1.15-.1-1.15.1v-.9" fill="#c48a2c" fill-rule="evenodd" transform="translate(14.4 -4.8)"/><path d="m2.55.5.3-.05M5.1 6.4 5 8.1l-.15.6" fill="none" stroke="#333" stroke-linecap="round" stroke-linejoin="round" stroke-width=".95"/><path d="M-1.5 10.3v-.8l3.6.3q.3 0 .45.3.7 1.85 1.35 1.85.95 0 1.35-1.8l.5-.35q1.65.05 4.55-.8v.9l-.7.15-1.3.25-2.25.45.05.05-.8 1.1q-.85 1-1.4 1-.6 0-1.45-1.1l-.7-1.05-.8-.1-2.45-.35m11.8 8.5v1l-2.6.25-9.2-.35v-.9l1.35.15 3.05.25h3l1.5-.05L9 19l1.3-.2" fill="#410d06" fill-rule="evenodd" transform="translate(14.4 -4.8)"/><path d="m.95 10.65.8.1.7 1.05q.85 1.1 1.45 1.1.55 0 1.4-1l.8-1.1v.05l1.7.4q1 .1.8.65l-.6.95-1.25 1.05 1.85-.35-.75 1.4L6.7 16.3l1.15-.1-.45 1-.85.85.65.25.7-.05q-.5.7-2.85.7-3.25 0-4.05-.8l.7-.95q-.8-.2-.8-.5l.35-.45q1.65-1.3 1.6-1.95-1-.15-1.55-.6l-1.45-1.4 1.5-1.55-.4-.1m9.35 4.65v3.5L9 19l.75-.3.4-2.4.15-1m-11.8 3.5v-1.55l.05.15.3 1.25 1 .3-1.35-.15" fill="#ffffbf" fill-rule="evenodd" transform="translate(14.4 -4.8)"/><path d="m-1.5 10.3 2.45.35.4.1-1.5 1.55 1.45 1.4q.55.45 1.55.6.05.65-1.6 1.95l-.35.45q0 .3.8.5l-.7.95q.8.8 4.05.8 2.35 0 2.85-.7l-.7.05-.65-.25.85-.85.45-1-1.15.1 1.15-1.35.75-1.4-1.85.35L8 12.85l.6-.95q.2-.55-.8-.65l-1.7-.4v-.05l-.05-.05 2.25-.45 1.3-.25.7-.15v5.4l-.15 1-.4 2.4L9 19l-1.6.15-1.5.05h-3l-3.05-.25-1-.3-.3-1.25-.05-.15V10.3m7 8.9H4.45 5.5" fill="#fdc259" fill-rule="evenodd" transform="translate(14.4 -4.8)"/></g><g id="g" fill-rule="evenodd"><path d="M11.1 4.7q.35 0 .45.5l.3 2.3 1.85 12.95-.1.5-.4.25q-2.7.2-6.7-1.3-4.1-1.55-5.45-3.45Q.2 15.5 0 8.6-.15 1.5.9.2l.7-.05Q3 1.65 6.05 3.1 9 4.45 11.1 4.7" transform="translate(0 -.15)"/><path d="m11.05 9.05.1.6-.3.65q-.45 1.15.65 1.9l.05.55-.45-.2q-1.75-1.55-.05-3.5m.75 5.35.1.7-.85.55q-2.5 1-2.25 3.8l-1-.3.1-.85q.6-3.1 3.9-3.9m.3 2.35.1.5-.85.15-.6.35-.1.35q-.15.95.2 1.8l-.65-.1q-.15-.45-.15-.9-.05-2.25 2.05-2.15M.85 8.05l.05-1.7.9-.25q1.85-.55 1.95-2.75l.85.4.45.25.15.15Q4.85 7.8.85 8.05m.1-3.4.05-.5.75-.7-.05-.35-.45-.75.15-.5q.95.6.9 1.7l-.15.25q-.4.7-1.2.85m6.15.2 1.1.4.35.55q.75 1 2.15.6l.15.95-.85.2q-2.45-.25-2.9-2.7m-.1 7.6q.15 1.4-1.15 1.85l-1.65-.45q-.4-.1-.45-.45-.45-3.95 3.1-2L7 12.45m1.55-.25q.2-1.35-1-2.05-4-2.55-5.35 2.05 0 1 .65 1.8l.9.75q4.15 1.75 4.8-2.55m-2.45-.5-.9-.5-.4.15q-1.95 2.05.95 2.3l.7-.7V12l-.35-.3m-4.9.5q0-1.75 1.25-2.95Q3.65 8 5.4 8q1.75 0 3 1.25 1.2 1.2 1.2 2.95 0 1.75-1.2 3-1.25 1.2-3 1.2t-2.95-1.2q-1.25-1.25-1.25-3" fill="#d80000" transform="translate(0 -.15)"/><path d="m10.85 7.35.2 1.7q-1.7 1.95.05 3.5l.45.2.25 1.65q-3.3.8-3.9 3.9l-.1.85Q5.3 18.1 3.2 16.8q-.95-.65-1.3-1.55Q.6 11.9.85 8.05q4-.25 4.35-3.9L5.05 4l2.05.85q.45 2.45 2.9 2.7l.85-.2m.3 2.3.35 2.55q-1.1-.75-.65-1.9l.3-.65m.75 5.45.2 1.65q-2.1-.1-2.05 2.15 0 .45.15.9l-1.4-.35q-.25-2.8 2.25-3.8l.85-.55m.3 2.15.4 2.75-1.75-.1q-.35-.85-.2-1.8l.1-.35.6-.35.85-.15M.9 6.35l.05-1.7q.8-.15 1.2-.85l.15-.25q.05-1.1-.9-1.7l3.2 1.9-.85-.4q-.1 2.2-1.95 2.75l-.9.25m.1-2.2.25-1.8.45.75.05.35-.75.7m7.2 1.1.7.15q1 .15 1.8 1-1.4.4-2.15-.6l-.35-.55m-7 6.95q0 1.75 1.25 3 1.2 1.2 2.95 1.2 1.75 0 3-1.2 1.2-1.25 1.2-3T8.4 9.25Q7.15 8 5.4 8T2.45 9.25Q1.2 10.45 1.2 12.2m4.9-.5.35.3v.95l-.7.7q-2.9-.25-.95-2.3l.4-.15.9.5m2.45.5q-.65 4.3-4.8 2.55l-.9-.75q-.65-.8-.65-1.8 1.35-4.6 5.35-2.05 1.2.7 1 2.05M7 12.45l-.15-1.05q-3.55-1.95-3.1 2 .05.35.45.45l1.65.45q1.3-.45 1.15-1.85" fill="#f9ff00" transform="translate(0 -.15)"/></g></defs></svg>

<?xml version="1.0" encoding="UTF-8" standalone="no"?>
<svg xmlns:xlink="http://www.w3.org/1999/xlink" height="82.0px" width="84.85px" xmlns="http://www.w3.org/2000/svg">
  <g transform="matrix(1.0, 0.0, 0.0, 1.0, 37.4, 42.25)">
    <use height="38.0" transform="matrix(1.0, 0.0, 0.0, 1.0, -11.95, -17.45)" width="32.05" xlink:href="#sprite0"/>
    <use height="38.95" transform="matrix(1.0, 0.0, 0.0, 1.0, -12.45, -17.95)" width="33.05" xlink:href="#sprite1"/>
    <use height="21.8" transform="matrix(1.0, 0.0, 0.0, 1.0, -14.4, 4.8)" width="37.65" xlink:href="#shape2"/>
    <use height="21.05" transform="matrix(1.0, 0.0, 0.0, 1.0, -13.35, 1.5)" width="13.7" xlink:href="#sprite2"/>
    <use height="21.05" transform="matrix(-1.0, 0.0, 0.0, 1.0, 21.3, 1.5)" width="13.7" xlink:href="#sprite2"/>
  </g>
  <defs>
    <g id="sprite0" transform="matrix(1.0, 0.0, 0.0, 1.0, -0.05, 0.0)">
      <use height="38.0" transform="matrix(1.0, 0.0, 0.0, 1.0, 0.05, 0.0)" width="32.05" xlink:href="#shape0"/>
    </g>
    <g id="shape0" transform="matrix(1.0, 0.0, 0.0, 1.0, -0.05, 0.0)">
      <path d="M27.35 7.4 Q29.5 11.55 30.9 16.15 32.35 20.85 32.05 25.65 31.7 30.6 27.85 33.75 24.05 36.95 19.1 37.8 L16.5 38.0 Q12.9 38.0 9.45 36.85 4.8 35.25 2.35 31.35 -0.2 27.4 0.05 23.0 0.25 18.6 2.05 13.7 3.85 8.75 7.0 5.05 10.1 1.3 14.7 0.1 L16.5 0.0 Q18.4 0.05 20.2 0.8 24.95 2.85 27.35 7.4" fill="#ffffff" fill-rule="evenodd" stroke="none"/>
    </g>
    <g id="sprite1" transform="matrix(1.0, 0.0, 0.0, 1.0, 0.45, 0.5)">
      <use height="38.95" transform="matrix(1.0, 0.0, 0.0, 1.0, -0.45, -0.5)" width="33.05" xlink:href="#shape1"/>
    </g>
    <g id="shape1" transform="matrix(1.0, 0.0, 0.0, 1.0, 0.45, 0.5)">
      <path d="M27.35 7.4 Q24.95 2.85 20.2 0.8 17.55 -0.3 14.7 0.1 10.1 1.3 7.0 5.05 3.85 8.75 2.05 13.7 0.25 18.6 0.05 23.0 -0.2 27.4 2.35 31.35 4.8 35.25 9.45 36.85 14.1 38.4 19.1 37.8 24.05 36.95 27.85 33.75 31.7 30.6 32.05 25.65 32.35 20.85 30.9 16.15 29.5 11.55 27.35 7.4 Z" fill="none" stroke="#000000" stroke-linecap="round" stroke-linejoin="round" stroke-width="1.0"/>
    </g>
    <g id="shape2" transform="matrix(1.0, 0.0, 0.0, 1.0, 14.4, -4.8)">
      <path d="M23.0 20.05 Q23.35 20.3 23.2 20.65 21.85 24.65 16.25 26.05 L9.3 26.6 Q5.8 26.35 4.95 25.55 L4.8 25.25 4.7 22.95 4.45 22.85 4.35 22.9 Q4.15 23.3 4.35 25.15 4.45 25.6 4.0 25.7 -5.85 28.2 -12.5 23.85 -14.2 22.8 -14.4 21.8 L-14.25 21.4 Q-12.25 18.95 -11.6 13.85 L-11.3 12.25 Q-11.15 12.0 -10.95 12.0 L-10.5 12.1 Q-7.75 14.45 -1.25 15.1 4.5 15.65 11.0 14.8 17.95 13.8 18.85 12.5 19.1 12.25 19.4 12.3 L19.75 12.7 19.85 13.15 Q21.05 18.75 23.0 20.05" fill="#3e0202" fill-rule="evenodd" stroke="none"/>
      <path d="M16.4 23.15 L15.45 24.1 14.8 24.65 14.55 24.7 Q11.25 25.85 7.85 24.8 L5.7 24.15 5.8 24.95 5.4 22.25 Q8.15 21.75 10.6 22.95 L10.95 23.25 6.85 22.8 5.45 22.4 5.6 23.4 Q8.4 24.4 11.4 24.15 L12.6 24.0 13.7 23.8 13.85 23.75 13.95 23.75 15.3 23.5 16.4 23.15 M10.75 15.9 L10.75 18.6 10.7 19.4 Q6.4 22.55 0.95 20.85 L-2.35 19.6 -1.6 23.2 -1.65 23.25 Q-6.75 23.25 -10.95 20.25 L-12.0 19.4 -10.5 13.3 Q-5.3 16.15 0.7 16.3 4.1 16.55 7.35 16.2 L10.75 15.9 M-1.65 24.15 L0.0 24.6 1.65 24.6 -1.5 24.85 Q-5.95 24.9 -9.95 23.2 -11.7 22.5 -12.9 21.15 L-12.4 20.35 Q-8.65 23.35 -3.65 24.0 L-1.65 24.15" fill="#d80000" fill-rule="evenodd" stroke="none"/>
      <path d="M16.4 23.15 Q18.75 22.4 20.3 20.4 L21.05 19.4 20.5 18.8 19.65 19.8 Q17.65 21.75 14.85 22.55 L13.0 23.0 11.45 23.2 10.95 23.25 10.6 22.95 Q8.15 21.75 5.4 22.25 L3.5 22.35 Q1.4 23.25 -0.7 23.25 L-1.6 23.2 -2.35 19.6 0.95 20.85 Q6.4 22.55 10.7 19.4 L10.75 18.6 10.75 15.9 Q15.15 15.85 18.8 13.7 L19.15 14.9 Q19.95 18.15 22.15 20.55 L21.7 20.2 Q19.2 23.85 14.8 24.65 L15.45 24.1 16.4 23.15 M0.35 24.0 L1.8 23.85 2.7 23.55 3.3 23.35 3.25 24.15 1.65 24.6 0.0 24.6 -1.65 24.15 0.35 24.0" fill="#960000" fill-rule="evenodd" stroke="none"/>
      <path d="M13.0 23.0 L14.85 22.55 Q17.65 21.75 19.65 19.8 17.7 22.05 14.8 22.7 L13.0 23.0 M0.35 24.0 L-1.65 24.15 -3.65 24.0 Q-8.65 23.35 -12.4 20.35 L-12.0 19.4 -10.95 20.25 Q-6.75 23.25 -1.65 23.25 L-1.6 24.1 0.35 24.0 M3.3 23.35 L2.7 23.55 3.4 23.25 3.3 23.35 M14.55 24.7 L12.75 25.9 Q9.6 26.3 6.5 25.2 L5.8 24.95 5.7 24.15 7.85 24.8 Q11.25 25.85 14.55 24.7 M-1.6 25.65 L-3.45 25.55 Q-9.5 25.55 -13.35 21.8 L-12.9 21.15 Q-11.7 22.5 -9.95 23.2 -5.95 24.9 -1.5 24.85 L-1.6 25.65" fill="#ffa80d" fill-rule="evenodd" stroke="none"/>
      <path d="M19.65 19.8 L20.5 18.8 21.05 19.4 20.3 20.4 Q18.75 22.4 16.4 23.15 L15.3 23.5 13.95 23.75 13.85 23.75 13.7 23.8 11.4 24.15 13.7 23.8 12.6 24.0 11.4 24.15 Q8.4 24.4 5.6 23.4 L5.45 22.4 6.85 22.8 10.95 23.25 11.45 23.2 13.0 23.0 14.8 22.7 Q17.7 22.05 19.65 19.8 M14.8 24.65 Q19.2 23.85 21.7 20.2 L22.15 20.55 Q20.1 25.55 14.45 25.7 L12.75 25.9 14.55 24.7 14.8 24.65 M-1.6 23.2 L-0.7 23.25 Q1.4 23.25 3.5 22.35 L3.4 23.25 2.7 23.55 1.8 23.85 0.35 24.0 -1.6 24.1 -1.65 23.25 -1.6 23.2 M1.65 24.6 L3.25 24.15 3.3 24.85 2.1 25.25 -1.6 25.65 -1.5 24.85 1.65 24.6 M11.45 23.2 L11.45 24.1 12.6 24.0 11.45 24.1 11.45 23.2" fill="#c48a2c" fill-rule="evenodd" stroke="none"/>
      <path d="M-11.85 5.3 L-11.55 5.25" fill="none" stroke="#333333" stroke-linecap="round" stroke-linejoin="round" stroke-width="0.9500000000000001"/>
      <path d="M-9.3 11.2 L-9.4 12.9 -9.55 13.5" fill="none" stroke="#333333" stroke-linecap="round" stroke-linejoin="round" stroke-width="0.9500000000000001"/>
      <path d="M-1.5 10.3 L-1.5 9.5 2.1 9.8 Q2.4 9.8 2.55 10.1 3.25 11.95 3.9 11.95 4.85 11.95 5.25 10.15 L5.75 9.8 Q7.4 9.85 10.3 9.0 L10.3 9.9 9.6 10.05 8.3 10.3 6.05 10.75 6.1 10.8 5.3 11.9 Q4.45 12.9 3.9 12.9 3.3 12.9 2.45 11.8 L1.75 10.75 0.95 10.65 -1.5 10.3 M10.3 18.8 L10.3 19.8 7.7 20.05 -1.5 19.7 -1.5 18.8 -0.15 18.95 2.9 19.2 3.95 19.2 4.45 19.2 4.95 19.2 5.5 19.2 5.65 19.2 5.9 19.2 7.4 19.15 9.0 19.0 10.3 18.8" fill="#410d06" fill-rule="evenodd" stroke="none"/>
      <path d="M0.95 10.65 L1.75 10.75 2.45 11.8 Q3.3 12.9 3.9 12.9 4.45 12.9 5.3 11.9 L6.1 10.8 6.1 10.85 7.8 11.25 Q8.8 11.35 8.6 11.9 L8.0 12.85 6.75 13.9 8.6 13.55 7.85 14.95 6.7 16.3 7.85 16.2 7.4 17.2 6.55 18.05 7.2 18.3 7.9 18.25 Q7.4 18.95 5.05 18.95 1.8 18.95 1.0 18.15 L1.7 17.2 Q0.9 17.0 0.9 16.7 L1.25 16.25 Q2.9 14.95 2.85 14.3 1.85 14.15 1.3 13.7 L-0.15 12.3 1.35 10.75 0.95 10.65 M10.3 15.3 L10.3 18.8 9.0 19.0 9.75 18.7 10.15 16.3 10.3 15.3 M-1.5 18.8 L-1.5 17.25 -1.45 17.4 -1.15 18.65 -0.15 18.95 -1.5 18.8" fill="#ffffbf" fill-rule="evenodd" stroke="none"/>
      <path d="M-1.5 10.3 L0.95 10.65 1.35 10.75 -0.15 12.3 1.3 13.7 Q1.85 14.15 2.85 14.3 2.9 14.95 1.25 16.25 L0.9 16.7 Q0.9 17.0 1.7 17.2 L1.0 18.15 Q1.8 18.95 5.05 18.95 7.4 18.95 7.9 18.25 L7.2 18.3 6.55 18.05 7.4 17.2 7.85 16.2 6.7 16.3 7.85 14.95 8.6 13.55 6.75 13.9 8.0 12.85 8.6 11.9 Q8.8 11.35 7.8 11.25 L6.1 10.85 6.1 10.8 6.05 10.75 8.3 10.3 9.6 10.05 10.3 9.9 10.3 15.3 10.15 16.3 9.75 18.7 9.0 19.0 7.4 19.15 5.9 19.2 5.65 19.2 5.5 19.2 4.95 19.2 4.45 19.2 3.95 19.2 2.9 19.2 -0.15 18.95 -1.15 18.65 -1.45 17.4 -1.5 17.25 -1.5 10.3 M5.5 19.2 L4.45 19.2 5.5 19.2" fill="#fdc259" fill-rule="evenodd" stroke="none"/>
    </g>
    <g id="sprite2" transform="matrix(1.0, 0.0, 0.0, 1.0, 0.0, -0.15)">
      <use height="21.05" transform="matrix(1.0, 0.0, 0.0, 1.0, 0.0, 0.15)" width="13.7" xlink:href="#shape3"/>
    </g>
    <g id="shape3" transform="matrix(1.0, 0.0, 0.0, 1.0, 0.0, -0.15)">
      <path d="M11.1 4.7 Q11.45 4.7 11.55 5.2 L11.85 7.5 13.7 20.45 13.6 20.95 13.2 21.2 Q10.5 21.4 6.5 19.9 2.4 18.35 1.05 16.45 0.2 15.5 0.0 8.6 -0.15 1.5 0.9 0.2 L1.6 0.15 Q3.0 1.65 6.05 3.1 9.0 4.45 11.1 4.7" fill="#000000" fill-rule="evenodd" stroke="none"/>
      <path d="M11.05 9.05 L11.15 9.65 10.85 10.3 Q10.4 11.45 11.5 12.2 L11.55 12.75 11.1 12.55 Q9.35 11.0 11.05 9.05 M11.8 14.4 L11.9 15.1 11.05 15.65 Q8.55 16.65 8.8 19.45 L7.8 19.15 7.9 18.3 Q8.5 15.2 11.8 14.4 M12.1 16.75 L12.2 17.25 11.35 17.4 10.75 17.75 10.65 18.1 Q10.5 19.05 10.85 19.9 L10.2 19.8 Q10.05 19.35 10.05 18.9 10.0 16.65 12.1 16.75 M0.85 8.05 L0.9 6.35 1.8 6.1 Q3.65 5.55 3.75 3.35 L4.6 3.75 5.05 4.0 5.2 4.15 Q4.85 7.8 0.85 8.05 M0.95 4.65 L1.0 4.15 1.75 3.45 1.7 3.1 1.25 2.35 1.4 1.85 Q2.35 2.45 2.3 3.55 L2.15 3.8 Q1.75 4.5 0.95 4.65 M7.1 4.85 L8.2 5.25 8.55 5.8 Q9.3 6.8 10.7 6.4 L10.85 7.35 10.0 7.55 Q7.55 7.3 7.1 4.85 M7.0 12.45 Q7.15 13.85 5.85 14.3 L4.2 13.85 Q3.8 13.75 3.75 13.4 3.3 9.45 6.85 11.4 L7.0 12.45 M8.55 12.2 Q8.75 10.85 7.55 10.15 3.55 7.6 2.2 12.2 2.2 13.2 2.85 14.0 L3.75 14.75 Q7.9 16.5 8.55 12.2 M6.1 11.7 L5.2 11.2 4.8 11.35 Q2.85 13.4 5.75 13.65 L6.45 12.95 6.45 12.0 6.1 11.7 M1.2 12.2 Q1.2 10.45 2.45 9.25 3.65 8.0 5.4 8.0 7.15 8.0 8.4 9.25 9.6 10.45 9.6 12.2 9.6 13.95 8.4 15.2 7.15 16.4 5.4 16.4 3.65 16.4 2.45 15.2 1.2 13.95 1.2 12.2" fill="#d80000" fill-rule="evenodd" stroke="none"/>
      <path d="M10.85 7.35 L11.05 9.05 Q9.35 11.0 11.1 12.55 L11.55 12.75 11.8 14.4 Q8.5 15.2 7.9 18.3 L7.8 19.15 Q5.3 18.1 3.2 16.8 2.25 16.15 1.9 15.25 0.6 11.9 0.85 8.05 4.85 7.8 5.2 4.15 L5.05 4.0 7.1 4.85 Q7.55 7.3 10.0 7.55 L10.85 7.35 M11.15 9.65 L11.5 12.2 Q10.4 11.45 10.85 10.3 L11.15 9.65 M11.9 15.1 L12.1 16.75 Q10.0 16.65 10.05 18.9 10.05 19.35 10.2 19.8 L8.8 19.45 Q8.55 16.65 11.05 15.65 L11.9 15.1 M12.2 17.25 L12.6 20.0 10.85 19.9 Q10.5 19.05 10.65 18.1 L10.75 17.75 11.35 17.4 12.2 17.25 M0.9 6.35 L0.95 4.65 Q1.75 4.5 2.15 3.8 L2.3 3.55 Q2.35 2.45 1.4 1.85 L4.6 3.75 3.75 3.35 Q3.65 5.55 1.8 6.1 L0.9 6.35 M1.0 4.15 L1.25 2.35 1.7 3.1 1.75 3.45 1.0 4.15 M8.2 5.25 L8.9 5.4 Q9.9 5.55 10.7 6.4 9.3 6.8 8.55 5.8 L8.2 5.25 M1.2 12.2 Q1.2 13.95 2.45 15.2 3.65 16.4 5.4 16.4 7.15 16.4 8.4 15.2 9.6 13.95 9.6 12.2 9.6 10.45 8.4 9.25 7.15 8.0 5.4 8.0 3.65 8.0 2.45 9.25 1.2 10.45 1.2 12.2 M6.1 11.7 L6.45 12.0 6.45 12.95 5.75 13.65 Q2.85 13.4 4.8 11.35 L5.2 11.2 6.1 11.7 M8.55 12.2 Q7.9 16.5 3.75 14.75 L2.85 14.0 Q2.2 13.2 2.2 12.2 3.55 7.6 7.55 10.15 8.75 10.85 8.55 12.2 M7.0 12.45 L6.85 11.4 Q3.3 9.45 3.75 13.4 3.8 13.75 4.2 13.85 L5.85 14.3 Q7.15 13.85 7.0 12.45" fill="#f9ff00" fill-rule="evenodd" stroke="none"/>
    </g>
  </defs>
</svg>
